Sources/FrostedUI/Resources/Icons.xcassets/gear32.imageset/gear-32.svg

<svg width="32" height="32" viewBox="0 0 32 32" fill="none" xmlns="http://www.w3.org/2000/svg" data-fui-icon="true">
  <path
    d="M17.2874 2.7627C18.727 2.89243 19.9219 3.97311 20.177 5.41992L20.4065 6.72461C20.9579 6.97687 21.4829 7.27548 21.9768 7.61426L23.2893 7.14258C24.7672 6.61064 26.4291 7.20566 27.2278 8.55762H27.2288L28.1868 10.1787V10.1797C28.9384 11.4534 28.7175 13.0519 27.679 14.0674L27.4602 14.2627L26.3967 15.127C26.4224 15.4131 26.4377 15.7042 26.4377 16L26.4319 16.3291C26.4254 16.5117 26.4128 16.6924 26.3967 16.8711L27.4602 17.7373C28.6833 18.7334 28.9885 20.4618 28.1868 21.8203V21.8213L27.2288 23.4424L27.2278 23.4414C26.4293 24.7939 24.7675 25.3895 23.2893 24.8574L21.9758 24.3848C21.4822 24.7233 20.9576 25.0213 20.4065 25.2734L20.177 26.5801C19.9049 28.1233 18.5635 29.2495 16.9963 29.25H14.9856C13.4187 29.2496 12.0773 28.1241 11.8049 26.5811L11.5735 25.2725C11.0228 25.0204 10.4982 24.7231 10.0051 24.3848L8.6936 24.8574C7.21545 25.3897 5.55188 24.794 4.75317 23.4414L3.79614 21.8203C2.9942 20.4616 3.29933 18.7334 4.52271 17.7373L5.58423 16.8721C5.56829 16.6928 5.55537 16.5119 5.54907 16.3291L5.54321 16C5.54321 15.7047 5.55876 15.4136 5.58423 15.127L4.52271 14.2627C3.29933 13.2666 2.9942 11.5384 3.79614 10.1797L4.75317 8.55859C5.55188 7.20596 7.21545 6.61026 8.6936 7.14258H8.69263L10.0042 7.61426C10.4975 7.2757 11.0224 6.97785 11.5735 6.72559L11.8049 5.41895C12.0773 3.87587 13.4187 2.75041 14.9856 2.75H16.9963L17.2874 2.7627ZM14.8303 4.25684C14.0593 4.32621 13.4193 4.90483 13.2825 5.67969V5.68066L12.9817 7.38281L12.9094 7.78906L12.5276 7.94629C11.8244 8.23475 11.1663 8.6087 10.5676 9.05469L10.2454 9.29492L9.86646 9.15918L8.18579 8.55469H8.18481C7.38128 8.26536 6.47579 8.59158 6.04517 9.32031L5.08813 10.9414C4.66127 11.6644 4.82406 12.5732 5.46899 13.0986L6.84595 14.2197L7.17017 14.4834L7.11646 14.8975C7.06952 15.2613 7.04322 15.6291 7.04321 16C7.04321 16.3704 7.06958 16.7378 7.11646 17.1016L7.17017 17.5156L6.84692 17.7783L5.46997 18.9004L5.46899 18.9014C4.82406 19.4268 4.66127 20.3356 5.08813 21.0586L6.04517 22.6797C6.47579 23.4084 7.38128 23.7346 8.18481 23.4453L9.86548 22.8398L10.2444 22.7041L10.5676 22.9443C11.0915 23.3346 11.6606 23.6704 12.2659 23.9414L12.5276 24.0527L12.9094 24.21L12.9817 24.6162L13.2825 26.3193V26.3203C13.4284 27.1468 14.1473 27.7499 14.9866 27.75H16.9954C17.8345 27.7498 18.5535 27.1469 18.6995 26.3203L18.9993 24.6172L19.0706 24.21L19.4534 24.0527C20.1572 23.7641 20.8156 23.3904 21.4143 22.9443L21.7366 22.7041L22.1165 22.8398L23.7981 23.4453C24.6016 23.7343 25.5063 23.4078 25.9368 22.6787L26.8948 21.0576C27.3212 20.3348 27.1584 19.4267 26.5139 18.9014L25.135 17.7793L24.8108 17.5156L24.8645 17.1016C24.9116 16.7365 24.9377 16.3693 24.9377 16C24.9377 15.6302 24.9116 15.2626 24.8645 14.8975L24.8108 14.4834L25.135 14.2197L26.5139 13.0986C27.1586 12.5732 27.3215 11.6643 26.8948 10.9414L25.9368 9.32129V9.32031C25.5062 8.59154 24.6015 8.26572 23.7981 8.55469H23.7971L22.1155 9.15918L21.7366 9.29492L21.4143 9.05469C20.8156 8.60864 20.1571 8.23486 19.4534 7.94629L19.0715 7.78906L18.9993 7.38184L18.6995 5.67969C18.5627 4.90477 17.9225 4.32627 17.1516 4.25684L16.9954 4.25H14.9866L14.8303 4.25684ZM16.0002 11.75C18.3474 11.7501 20.2502 13.6529 20.2502 16C20.2502 18.3471 18.3474 20.2499 16.0002 20.25C13.653 20.25 11.7502 18.3472 11.7502 16C11.7502 13.6528 13.653 11.75 16.0002 11.75ZM16.0002 13.25C14.4815 13.25 13.2502 14.4812 13.2502 16C13.2502 17.5188 14.4815 18.75 16.0002 18.75C17.5189 18.7499 18.7502 17.5187 18.7502 16C18.7502 14.4813 17.5189 13.2501 16.0002 13.25Z"
    fill="currentColor"
  />
</svg>

<svg xmlns="http://www.w3.org/2000/svg" width="32" height="32" fill="none" data-fui-icon="true" viewBox="0 0 32 32"><path fill="currentColor" d="M17.287 2.763a3.23 3.23 0 0 1 2.89 2.657l.23 1.305c.55.252 1.076.55 1.57.89l1.312-.472a3.29 3.29 0 0 1 3.939 1.415l.959 1.62v.002a3.17 3.17 0 0 1-.508 3.887l-.219.196-1.063.864q.039.429.04.873l-.005.33q-.012.273-.035.541l1.063.866a3.17 3.17 0 0 1 .727 4.083v.001l-.958 1.621h-.001a3.29 3.29 0 0 1-3.939 1.415l-1.313-.472q-.741.508-1.57.888l-.229 1.307a3.23 3.23 0 0 1-3.18 2.67h-2.011a3.23 3.23 0 0 1-3.181-2.669l-.232-1.308a10.5 10.5 0 0 1-1.568-.888l-1.311.472a3.29 3.29 0 0 1-3.94-1.416l-.958-1.62a3.17 3.17 0 0 1 .727-4.084l1.061-.865q-.025-.27-.035-.543L5.543 16q.002-.443.041-.873l-1.061-.864a3.17 3.17 0 0 1-.727-4.083l.957-1.621a3.29 3.29 0 0 1 3.94-1.416l1.311.471a10.5 10.5 0 0 1 1.57-.888l.23-1.307a3.23 3.23 0 0 1 3.182-2.669h2.01zM14.83 4.257a1.73 1.73 0 0 0-1.547 1.423l-.301 1.703-.073.406-.381.157a9 9 0 0 0-1.96 1.109l-.323.24-.379-.136-1.68-.604h-.001a1.79 1.79 0 0 0-2.14.765l-.957 1.621A1.67 1.67 0 0 0 5.47 13.1l1.377 1.12.324.264-.054.415A9 9 0 0 0 7.043 16c0 .37.027.738.073 1.102l.054.414-.323.262L5.47 18.9l-.001.001a1.67 1.67 0 0 0-.38 2.158l.956 1.62a1.79 1.79 0 0 0 2.14.766l1.68-.605.38-.136.323.24c.524.39 1.093.726 1.698.997l.262.112.381.157.073.406.3 1.703v.001c.146.827.865 1.43 1.705 1.43h2.008c.84 0 1.558-.603 1.704-1.43l.3-1.703.072-.407.382-.157a9 9 0 0 0 1.961-1.109l.323-.24.38.136 1.681.605a1.79 1.79 0 0 0 2.139-.766l.958-1.621a1.67 1.67 0 0 0-.381-2.157l-1.379-1.122-.324-.263.053-.414q.073-.549.074-1.102-.001-.555-.073-1.102l-.054-.415.324-.263 1.379-1.121a1.67 1.67 0 0 0 .38-2.158l-.957-1.62a1.79 1.79 0 0 0-2.139-.766l-1.682.604-.38.136-.322-.24a9 9 0 0 0-1.96-1.109l-.383-.157L19 7.382l-.3-1.702a1.73 1.73 0 0 0-1.547-1.423l-.157-.007h-2.008zM16 11.75a4.25 4.25 0 1 1 0 8.5 4.25 4.25 0 0 1 0-8.5m0 1.5a2.75 2.75 0 1 0 0 5.5 2.75 2.75 0 0 0 0-5.5"/></svg>
